X:1
T:Schall der Nacht
T:Josef Gersbach
T:Hans Jakob Christoph von Grimmelshausen
T:Schall der Nacht
T:CPDL - Creative Commons Attribution Non Commercial 3.0
T:CPDL - Creative Commons Attribution Non Commercial 3.0
C:Josef Gersbach
Z:Hans Jakob Christoph von Grimmelshausen
Z:CPDL - Creative Commons Attribution Non Commercial 3.0
%%score [ ( 1 2 ) ( 3 4 ) ]
L:1/8
Q:1/4=80
M:6/8
K:Ab
V:1 treble nm="S\nA" snm="S\nA"
V:2 treble 
V:3 bass nm="T\nB" snm="T\nB"
V:4 bass 
V:1
"^Einfach, doch nicht lässig" [CE] | [CE]2 [CE] [EA]2 [GB] | [Ac]2 [GB] [AA]2 [EE] | %3
w: 1.~Komm|Trost der Nacht, o|Nach- ti- gall!, lass|
w: 2.~Ob-|schon ist hin der|Son- nen- schein, und|
w: 3.~E-|cho, der wil- de|Wi- der- hall, will|
w: 4.~Die|Ster- ne, so am|Him- mel stehn, sie|
w: 5.~Nur|her mein liebs- tes|Vö- ge- lein! wir|
 [EG]2 [FA] [GB]2 [Ac] | [Bd]2 [Ac] [GB]2 [GB] | [Ac][ce][ce] [ce][Bd][Ac] | [Ac]3 [GB]2 | z | z6 | %9
w: dei- ne Stimm' mit|Freu- den- schall auf's|lieb- * lichs- te * er-|klin- gen!|||
w: wir im Fins- tern|müs- sen sein, so|kön- * nen wir * doch|sin- gen|||
w: sein bei die- sem|Freu- den- schall und|läs- * set sich * auch|hö- ren;|||
w: las- sen Gott zum|Lo- be sehn und|tun * ihm Ehr' * be-|wei- sen.|||
w: wol- len nicht die|Fäuls- ten sein, und|schla- * fend lie- * gen|blei- ben;|||
 z6 | z6 | z6 | z6 | z6 |[M:2/4] [ce][ce] [df][ce] | [Bd][Ge] [Ac][GB] | z4 | z4 | AA dd | Bf ed | %20
w: |||||1,~5.~Lass dein Stimm- lein|laut er- schal- len,|||1\-5.~denn vor al- len|kannst du lo- ben|
w: |||||2,~3,~4.~Drum dein Stimm- lein|lass er- schal- len,|||||
w: |||||||||||
w: |||||||||||
w: |||||||||||
!<(! cB dc!<)! |!>(! e3 G | G>A!>)! A2 |] %23
w: Gott im Him- mel|hoch dort|o- * ben.|
w: |||
w: |||
w: |||
w: |||
V:2
 A, | A,2 A, C2 E | E2 D C2 E | E2 E E2 E | E2 E E2 E | A,2 A, A,2 C | E3 E2 | x | x6 | x6 | x6 | %11
 x6 | x6 | x6 |[M:2/4] AA AA | EE EE | x4 | x4 | FF FF | GG AB | EE AA | E3 E | C>D C2 |] %23
V:3
 z | z6 | z6 | z6 | z6 | z6 | z5 | [G,B,] | [F,B,]2 [=D,F,] [D,F,]2 [F,A,] | %9
w: |||||||Komm,|komm, und lob den|
w: |||||||von|Got- tes Güt' und|
w: |||||||ver-|weist uns al- le|
w: |||||||Die|Eul' auch, die nicht|
w: |||||||viel-|mehr bis dass die|
 [E,G,]2 [F,A,] [G,B,]2 [G,B,] | [F,B,]2 [=D,F,] [D,F,]2 [F,A,] | %11
w: Schöp- fer dein, weil|and- re Vög- lein|
w: sei- ner Macht, weil|uns kann hin- dern|
w: Mü- dig- keit, der|wir er- ge- ben|
w: sin- gen kann, zeigt|doch mit ih- rem|
w: Mor- gen- röt' er-|freu- et die- se|
 [E,G,][F,A,][A,C] [G,B,]2 [G,B,] | [G,E]2 [CE] [CF]2 [A,F] | [F,=D]3 [G,E]2 z |[M:2/4] z4 | z4 | %16
w: schla- * fen sein, und|nicht mehr mö- gen|sin- gen.|||
w: kei- * ne Nacht, sein|Lob zu vol- len-|brin- gen.|||
w: al- * le- zeit, lehrt|uns den Schlaf be-|tö- ren.|||
w: Heu- * len an, dass|sie Gott auch tu'|prei- sen.|||
w: Wäl- * der öd', in|Got- tes Lob ver-|trei- ben.|||
 [CE][CE] [DF][CE] | [B,D][G,E] [A,C][G,B,] | A,A, B,B, | B,B, CG, | A,G, F,E, | C2 B,2 | %22
w: Lass dein Stimm- lein|laut er- schal- len;|||||
w: Drum dein Stimm- lein|lass er- schal- len;|||||
w: ||||||
w: ||||||
w: ||||||
 A,2 A,2 |] %23
w: |
w: |
w: |
w: |
w: |
V:4
 x | x6 | x6 | x6 | x6 | x6 | x5 | E, | =D,2 B,, B,,2 B,, | E,2 E, E,2 E, | =D,2 B,, B,,2 B,, | %11
 E,2 E, E,2 E, | C,2 C, A,,2 A,, | B,,3 E,2 x |[M:2/4] x4 | x4 | A,A, A,A, | E,E, E,E, | %18
 F,F, B,,B,, | E,D, C,E, | A,G, F,E, | E,2 E,2 | A,,2 A,,2 |] %23

